X:170
T: Cousin Michael Rafferty's
C: BB
R: jig
Q: 1/8=320
M: 6/8
L: 1/8
K: G
B | "G"dGG "C"Ecc | "G"BcG "D"EDD | "G"DEG "Am"AGA | "G"Bdg "Em"ede |
"G"dgd "C"ece | "G"BcG "D"EDD | "G"DEG "D7"Adc | "G"BGF "G"G2 :|
B | "Em"eBB gBB | b2 a gfe | "D"dAA fAA | a2 g fed |
"G"BGB "C"cAc | "G"dBd "C"efg | "G"DEG "D7"Adc |"G"BGF "G"G2 :|
%%%%%%%%%%%%%%%%%%%%%%%%%%%%%%%%%%%%%%%%%%%
